!!!COM: Messiaen, Olivier (Eugène Prosper Charles)
!!!OTL: Turangalîla, Symphony for Solo Piano, Ondes Martenot and Orchestra
!!!OMV: X: Final
!!!example: 775
!!!work: Mes-22
**kern	**dynam	**kern	**dynam	**kern	**dynam	**kern	**dynam	**kern	**dynam	**kern	**dynam	**kern	**dynam	**kern	**dynam	**kern	**dynam	**kern	**kern	**dynam	**kern	**dynam	**kern	**dynam	**kern	**dynam	**kern	**dynam	**kern	**dynam	**kern	**dynam	**kern	**dynam	**kern	**dynam	**kern	**dynam	**kern	**dynam	**kern	**dynam
*part21	*part21	*part20	*part20	*part19	*part19	*part18	*part18	*part17	*part17	*part16	*part16	*part15	*part15	*part14	*part14	*part13	*part13	*part12	*part12	*part12	*part11	*part11	*part10	*part10	*part9	*part9	*part8	*part8	*part7	*part7	*part6	*part6	*part5	*part5	*part4	*part4	*part3	*part3	*part2	*part2	*part1	*part1
*staff22	*	*staff21	*	*staff20	*	*staff19	*	*staff18	*	*staff17	*	*staff16	*	*staff15	*	*staff14	*	*staff13	*staff12	*	*staff11	*	*staff10	*	*staff9	*	*staff8	*	*staff7	*	*staff6	*	*staff5	*	*staff4	*	*staff3	*	*staff2	*	*staff1	*
*I"Violoncello	*	*I"Violoncello	*	*I"Viola	*	*I"Viola	*	*I"Violin II	*	*I"Violin II	*	*I"Violin I	*	*I"Violin I	*	*I"Onde	*	*I"Piano	*	*	*I"Celesta	*	*I"Tubular Bells	*	*I"Cymbals	*	*I"Maraca	*	*I"Cymbals	*	*I"Bassoon	*	*I"Clarinet in A	*	*I"Cor Anglais	*	*I"Oboe	*	*I"Flute	*	*I"Piccolo	*
*I'Vc.	*	*I'Vc.	*	*I'Vla.	*	*I'Vla.	*	*I'Vln. II	*	*I'Vln. II	*	*I'Vln. I	*	*I'Vln. I	*	*	*	*I'Pno.	*	*	*I'Cel.	*	*I'Tub. B.	*	*I'Cym.	*	*I'Perc.	*	*I'Cym.	*	*I'Bsn.	*	*I'Cl.	*	*I'C. A.	*	*I'Ob.	*	*I'Fl.	*	*I'Picc.	*
*clefF4	*	*clefF4	*	*clefC3	*	*clefC3	*	*clefG2	*	*clefG2	*	*clefG2	*	*clefG2	*	*clefG2	*	*clefF4	*clefG2	*	*clefG2	*	*clefG2	*	*clefpercussion0	*	*clefpercussion0	*	*clefpercussion0	*	*clefF4	*	*clefG2	*	*clefG2	*	*clefG2	*	*clefG2	*	*clefG2	*
*k[]	*	*k[]	*	*k[]	*	*k[]	*	*k[]	*	*k[]	*	*k[]	*	*k[]	*	*k[]	*	*k[]	*k[]	*	*k[]	*	*k[]	*	*	*	*	*	*	*	*k[]	*	*k[]	*	*k[]	*	*k[]	*	*k[]	*	*k[]	*
*	*	*	*	*	*	*	*	*	*	*	*	*	*	*	*	*	*	*	*	*	*	*	*	*	*	*	*	*	*	*	*	*	*	*	*	*	*	*	*	*	*	*
*M3/16	*	*M3/16	*	*M3/16	*	*M3/16	*	*M3/16	*	*M3/16	*	*M3/16	*	*M3/16	*	*M3/16	*	*M3/16	*M3/16	*	*M3/16	*	*M3/16	*	*M3/16	*	*M3/16	*	*M3/16	*	*M3/16	*	*M3/16	*	*M3/16	*	*M3/16	*	*M3/16	*	*M3/16	*
*MM150	*	*MM150	*	*MM150	*	*MM150	*	*MM150	*	*MM150	*	*MM150	*	*MM150	*	*MM150	*	*MM150	*MM150	*	*MM150	*	*MM150	*	*MM150	*	*MM150	*	*MM150	*	*MM150	*	*MM150	*	*MM150	*	*MM150	*	*MM150	*	*MM150	*
=63	=	=	=	=	=	=	=	=	=	=	=	=	=	=	=	=	=	=	=	=	=	=	=	=	=	=	=	=	=	=	=	=	=	=	=	=	=	=	=	=	=	=
16B-XKL	.	16B-XKL	.	16cnKL	.	16cnKL	.	16dd#XKL	.	16dd#XKL	.	16dKL	.	16dKL	.	16dKL	.	8.r	16d#XLL 16ddn	.	16dddKL	.	16dKL	.	[8.x	.	8.r	.	[8.x	.	8.r	.	8.r	.	8.r	.	8.r	.	8.r	.	8.r	.
8CCnJ	.	8CCnJ	.	8EnJ	.	8EnJ	.	8cc#XJ	.	8cc#XJ	.	8e-XJ	.	8e-XJ	.	8cc#XJ	.	.	16cc#XJJ 16ccc#X	.	8cccc#XJ	.	8cc#XJ	.	.	.	.	.	.	.	.	.	.	.	.	.	.	.	.	.	.	.
.	.	.	.	.	.	.	.	.	.	.	.	.	.	.	.	.	.	.	16r	.	.	.	.	.	.	.	.	.	.	.	.	.	.	.	.	.	.	.	.	.	.	.
=64	=64	=64	=64	=64	=64	=64	=64	=64	=64	=64	=64	=64	=64	=64	=64	=64	=64	=64	=64	=64	=64	=64	=64	=64	=64	=64	=64	=64	=64	=64	=64	=64	=64	=64	=64	=64	=64	=64	=64	=64	=64	=64
8.r	.	8.r	.	8.r	.	8.r	.	8.r	.	8.r	.	8.r	.	8.r	.	(16dd#XKL	.	8.r	8.r	.	8.r	.	8.r	.	8.x]	.	8.r	.	8.x]	.	8.e	f	(16ccKL 16ff#X	f	(16b-XKL	f	(16ee-XKL 16ccc-X	f	(16ddd-XKL 16ggg	f	(16gggKL	f
.	.	.	.	.	.	.	.	.	.	.	.	.	.	.	.	8ddnJ)	.	.	.	.	.	.	.	.	.	.	.	.	.	.	.	.	8bJ) 8gg#X	.	8aJ)	.	8ddnJ) 8gg-X	.	8bb-XJ) 8fff	.	8fffJ)	.
=65	=65	=65	=65	=65	=65	=65	=65	=65	=65	=65	=65	=65	=65	=65	=65	=65	=65	=65	=65	=65	=65	=65	=65	=65	=65	=65	=65	=65	=65	=65	=65	=65	=65	=65	=65	=65	=65	=65	=65	=65	=65	=65
8.r	.	8.r	.	8.r	.	8.r	.	8.r	.	8.r	.	8.r	.	8.r	.	(16cc#XKL	.	8.r	8.r	.	8.r	.	8.r	.	8.r	.	16xLL	mf	8.r	.	8.d	.	(16f#XKL 16cc#X	.	8.e	.	(16ggnKL 16aan	.	(16eee-XKL 16ggg	.	(16gggKL	.
.	.	.	.	.	.	.	.	.	.	.	.	.	.	.	.	8dd#XJ)	.	.	.	.	.	.	.	.	.	.	16x	.	.	.	.	.	8a#XJ) 8dd#X	.	.	.	8ffJ) 8aa-X	.	8ddd-XJ) 8fff	.	8fffJ)	.
.	.	.	.	.	.	.	.	.	.	.	.	.	.	.	.	.	.	.	.	.	.	.	.	.	.	.	[16xJJ	.	.	.	.	.	.	.	.	.	.	.	.	.	.	.
=66	=66	=66	=66	=66	=66	=66	=66	=66	=66	=66	=66	=66	=66	=66	=66	=66	=66	=66	=66	=66	=66	=66	=66	=66	=66	=66	=66	=66	=66	=66	=66	=66	=66	=66	=66	=66	=66	=66	=66	=66	=66	=66
8.r	.	8.r	.	8.r	.	8.r	.	8.r	.	8.r	.	8.r	.	8.r	.	8.ccc#X~	.	8.r	8.r	.	8.r	.	8.r	.	16r	.	16x]	.	16r	.	[8.c#X~	.	8d#X~L 8b	.	8f#X~L	.	8a-X~L 8ff	.	8ccc~L 8ggg	.	8ggg~L	.
.	.	.	.	.	.	.	.	.	.	.	.	.	.	.	.	.	.	.	.	.	.	.	.	.	[8x	p	16r	.	[8x	p	.	.	.	.	.	.	.	.	.	.	.	.
.	.	.	.	.	.	.	.	.	.	.	.	.	.	.	.	.	.	.	.	.	.	.	.	.	.	.	16r	.	.	.	.	.	[16en~Jk [16an	.	[16b~Jk	.	[16g-X~Jk [16ee-X	.	[16bb-X~Jk [16fff	.	[16fff~Jk	.
=67	=67	=67	=67	=67	=67	=67	=67	=67	=67	=67	=67	=67	=67	=67	=67	=67	=67	=67	=67	=67	=67	=67	=67	=67	=67	=67	=67	=67	=67	=67	=67	=67	=67	=67	=67	=67	=67	=67	=67	=67	=67	=67
16r	.	16r	.	16r	.	16r	.	16r	.	16r	.	16r	.	16r	.	16r	.	8.r	16r	.	16r	.	16r	.	16xKL]	.	8.r	.	16xKL]	.	16c#X]	.	16en] 16a]	.	16bn]	.	16g-X] 16ee-]	.	16bb-] 16fff]	.	16fff]	.
16CLL	f	16CLL	f	16F#XLL	f	16b-XLL	f	16gnLL	f	16b-XLL	f	16BnLL	f	16BnLL	f	16gnLL	f	.	16BnLL 16g	f	16gggnLL	f	16gnLL	f	[8xJ	.	.	.	[8xJ	.	16r	.	16r	.	16r	.	16r	.	16r	.	16r	.
16E-XJJ	.	16E-XJJ	.	16G#XJJ	.	16anJJ	.	16c#XJJ	.	16aJJ	.	16c#XJJ	.	16c#XJJ	.	16c#XJJ	.	.	16c#XJJ 16a	.	16ccc#XJJ	.	16c#XJJ	.	.	.	.	.	.	.	16r	.	16r	.	16r	.	16r	.	16r	.	16r	.
=68	=68	=68	=68	=68	=68	=68	=68	=68	=68	=68	=68	=68	=68	=68	=68	=68	=68	=68	=68	=68	=68	=68	=68	=68	=68	=68	=68	=68	=68	=68	=68	=68	=68	=68	=68	=68	=68	=68	=68	=68	=68	=68
16BB-XLL	.	16BB-XLL	.	16ELL	.	16b-XLL	.	16a#XLL	.	16a-XLL	.	16AnLL	.	16AnLL	.	16g#XLL	.	8.r	16eenLL 16bb-X	.	16ggg#XLL	.	16g#XLL	.	16xKL]	.	8.r	.	16xKL]	.	8.r	.	8.r	.	8.r	.	8.r	.	8.r	.	8.r	.
16C	.	16C	.	16F#X	.	16a-X	.	16g#X	.	16g	.	16B	.	16B	.	16gn	.	.	16ccn 16ff#X	.	16gggn	.	16gn	.	[8xJ	.	.	.	[8xJ	.	.	.	.	.	.	.	.	.	.	.	.	.
16E-XJJ	.	16E-XJJ	.	16BnJJ	.	16dnJJ	.	16c#XJJ	.	16ddJJ	.	16c#XJJ	.	16a-XJJ	.	16c#XJJ	.	.	16cc#XJJ 16gg#X	.	16ccc#XJJ	.	16c#XJJ	.	.	.	.	.	.	.	.	.	.	.	.	.	.	.	.	.	.	.
=69	=69	=69	=69	=69	=69	=69	=69	=69	=69	=69	=69	=69	=69	=69	=69	=69	=69	=69	=69	=69	=69	=69	=69	=69	=69	=69	=69	=69	=69	=69	=69	=69	=69	=69	=69	=69	=69	=69	=69	=69	=69	=69
16BB-XLL	.	16BB-XLL	.	16GnLL	.	16c#XLL	.	16cc#XLL	.	16f#XLL	.	16cnLL	.	16fLL	.	16cnLL	.	8.r	16ffnLL 16ggn	.	16cccnLL	.	16cnLL	.	8.x_	.	8.r	.	8.x_	.	8.r	.	8.r	.	8.r	.	8.r	.	8.r	.	8.r	.
16B-X	.	16B-X	.	16cn	.	16cn	.	16dd#X	.	16dd#X	.	16dn	.	16dn	.	16dn	.	.	16d#X 16ddn	.	16dddn	.	16dn	.	.	.	.	.	.	.	.	.	.	.	.	.	.	.	.	.	.	.
[16CCJJ	.	[16CCJJ	.	[16EnJJ	.	[16EnJJ	.	[16cc#XJJ	.	[16cc#XJJ	.	[16e-XJJ	.	[16e-XJJ	.	[16cc#XJJ	.	.	[16cc#XJJ [16ccc#X	.	[16cccc#XJJ	.	[16cc#XJJ	.	.	.	.	.	.	.	.	.	.	.	.	.	.	.	.	.	.	.
=70	=70	=70	=70	=70	=70	=70	=70	=70	=70	=70	=70	=70	=70	=70	=70	=70	=70	=70	=70	=70	=70	=70	=70	=70	=70	=70	=70	=70	=70	=70	=70	=70	=70	=70	=70	=70	=70	=70	=70	=70	=70	=70
16CC]	.	16CC]	.	16E]	.	16E]	.	16cc#X]	.	16cc#]	.	16e-]	.	16e-]	.	16cc#LL]	.	8.r	16cc#] 16ccc#]	.	16cccc#]	.	16cc#]	.	16x]	.	16r	.	16x]	.	16r	.	16r	.	16r	.	16r	.	16r	.	16r	.
16r	.	16r	.	16r	.	16r	.	16r	.	16r	.	16r	.	16r	.	(16dd#X	.	.	16r	.	16r	.	16r	.	16r	.	16xLL	mf	16r	.	[8e	f	16ccLL 16ff#X	f	(16b-XLL	f	(16ee-XLL 16ccc-X	f	(16ddd-XLL 16ggg	f	(16gggLL	f
16r	.	16r	.	16r	.	16r	.	16r	.	16r	.	16r	.	16r	.	[16ddnJJ)	.	.	16r	.	16r	.	16r	.	16r	.	16xJJ	.	16r	.	.	.	[16bJJ [16gg#X	.	[16aJJ)	.	[16ddnJJ) [16gg-X	.	[16bb-XJJ) [16fff	.	[16fffJJ)	.
=71	=71	=71	=71	=71	=71	=71	=71	=71	=71	=71	=71	=71	=71	=71	=71	=71	=71	=71	=71	=71	=71	=71	=71	=71	=71	=71	=71	=71	=71	=71	=71	=71	=71	=71	=71	=71	=71	=71	=71	=71	=71	=71
8.r	.	8.r	.	8.r	.	8.r	.	8.r	.	8.r	.	8.r	.	8.r	.	16ddLL]	.	8.r	8.r	.	8.r	.	8.r	.	8.r	.	16xKL	.	8.r	.	16eKL]	.	16bLL] 16gg#]	.	16aKL]	.	16ddnLL] 16gg-X]	.	16bb-XLL] 16fff]	.	16fffLL]	.
.	.	.	.	.	.	.	.	.	.	.	.	.	.	.	.	(16cc#X	.	.	.	.	.	.	.	.	.	.	8xJ	.	.	.	[8dJ	.	(16f#X 16cc#X	.	[8eJ	.	(16ggn 16aan	.	(16eee-X 16ggg	.	(16ggg	.
.	.	.	.	.	.	.	.	.	.	.	.	.	.	.	.	[16dd#XJJ)	.	.	.	.	.	.	.	.	.	.	.	.	.	.	.	.	[16a#XJJ) [16dd#X	.	.	.	[16ffJJ) [16aa-X	.	[16ddd-XJJ) [16fff	.	[16fffJJ)	.
=72	=72	=72	=72	=72	=72	=72	=72	=72	=72	=72	=72	=72	=72	=72	=72	=72	=72	=72	=72	=72	=72	=72	=72	=72	=72	=72	=72	=72	=72	=72	=72	=72	=72	=72	=72	=72	=72	=72	=72	=72	=72	=72
8.r	.	8.r	.	8.r	.	8.r	.	8.r	.	8.r	.	8.r	.	8.r	.	16dd#KL]	.	8.r	8.r	.	8.r	.	8.r	.	8.x	p	8.r	.	8.x	p	16dKL]	.	16a#KL] 16dd#]	.	16eKL]	.	16ffKL] 16aa-X]	.	16ddd-XKL] 16fff]	.	16fffKL]	.
.	.	.	.	.	.	.	.	.	.	.	.	.	.	.	.	[8ccc#XJ	.	.	.	.	.	.	.	.	.	.	.	.	.	.	[8c#X~J	.	8d#X~J 8b	.	8f#X~J	.	8a-X~J 8ff	.	8ccc~J 8ggg	.	8ggg~J	.
==	==	==	==	==	==	==	==	==	==	==	==	==	==	==	==	==	==	==	==	==	==	==	==	==	==	==	==	==	==	==	==	==	==	==	==	==	==	==	==	==	==	==
*-	*-	*-	*-	*-	*-	*-	*-	*-	*-	*-	*-	*-	*-	*-	*-	*-	*-	*-	*-	*-	*-	*-	*-	*-	*-	*-	*-	*-	*-	*-	*-	*-	*-	*-	*-	*-	*-	*-	*-	*-	*-	*-
!!!CDT: 1908/12/10-1992/04/27
!!!CBL: Avignon, France
!!!CDL: Paris, France
!!!CNT: French
!!!AGN: Orchestral; Concerto
!!!MCN: Bernstein, Leonard
!!!MDT: 1949/12/02
!!!MGN: Boston Symphony Orchestra
!!!MLC: Boston, Massachusetts, United States of America
!!!MPD: 1949
!!!MPN: Loriod, Yvonne; Martenot, Ginette
!!!ODT: 1948 (rev. 1990)
!!!PDT: 1953
!!!excerpt-start-measure: 63
!!!excerpt-end-measure: 72
!!!excerpt-start-time: 0:37
!!!excerpt-end-time: 0:42
!!!EEV: 2020/01/17
!!!system-decoration: [(s1,s2,s3,s4,s5,s6)][(s7,s8,s9,s10)][(s11)]{(s12,s13)}s14[(s15,s16,s17,s18,s19,s20,s21,s22)]
!!!ONB: Converted from MusicXML on 2020/01/17
